svg/fluentui-system-icons/ic_fluent_projection_screen_dismiss_28_filled.svg

<svg width="28" height="28" viewBox="0 0 28 28" fill="none" xmlns="http://www.w3.org/2000/svg">
<path d="M27 7.5C27 11.0899 24.0899 14 20.5 14C16.9101 14 14 11.0899 14 7.5C14 3.91015 16.9101 1 20.5 1C24.0899 1 27 3.91015 27 7.5ZM17.8536 4.14645C17.6583 3.95118 17.3417 3.95118 17.1464 4.14645C16.9512 4.34171 16.9512 4.65829 17.1464 4.85355L19.7929 7.5L17.1464 10.1464C16.9512 10.3417 16.9512 10.6583 17.1464 10.8536C17.3417 11.0488 17.6583 11.0488 17.8536 10.8536L20.5 8.20711L23.1464 10.8536C23.3417 11.0488 23.6583 11.0488 23.8536 10.8536C24.0488 10.6583 24.0488 10.3417 23.8536 10.1464L21.2071 7.5L23.8536 4.85355C24.0488 4.65829 24.0488 4.34171 23.8536 4.14645C23.6583 3.95118 23.3417 3.95118 23.1464 4.14645L20.5 6.79289L17.8536 4.14645ZM20.5 15C22.1884 15 23.7465 14.4421 25 13.5005V16.25C25 18.5972 23.0972 20.5 20.75 20.5H14.75V23.5H19.25C19.6642 23.5 20 23.8358 20 24.25C20 24.6642 19.6642 25 19.25 25H8.75C8.33579 25 8 24.6642 8 24.25C8 23.8358 8.33579 23.5 8.75 23.5H13.25V20.5H7.25C4.90279 20.5 3 18.5972 3 16.25V6.73244C2.4022 6.38663 2 5.74028 2 5C2 3.89543 2.89543 3 4 3H14.4995C13.5579 4.25349 13 5.81159 13 7.5C13 11.6421 16.3579 15 20.5 15Z" fill="#212121"/>
</svg>

<svg xmlns="http://www.w3.org/2000/svg" width="28" height="28"><path d="M27 7.5a6.5 6.5 0 1 1-13 0 6.5 6.5 0 0 1 13 0Zm-9.146-3.354a.5.5 0 0 0-.708.708L19.793 7.5l-2.647 2.646a.5.5 0 0 0 .708.708L20.5 8.207l2.646 2.647a.5.5 0 0 0 .708-.708L21.207 7.5l2.647-2.646a.5.5 0 0 0-.708-.708L20.5 6.793l-2.646-2.647ZM20.5 15a7.466 7.466 0 0 0 4.5-1.5v2.75a4.25 4.25 0 0 1-4.25 4.25h-6v3h4.5a.75.75 0 0 1 0 1.5H8.75a.75.75 0 0 1 0-1.5h4.5v-3h-6A4.25 4.25 0 0 1 3 16.25V6.732A2 2 0 0 1 4 3h10.5a7.5 7.5 0 0 0 6 12Z"/></svg>
